!! Isochronous pitch passage.
!! Bass-line.
!! From Furry, Robardina Rag, measure 53ff
!! Basses
!! 2/4 meter
**kern	**metpos
*M2/4	*M2/4
*tb8	*tb8
=53	=53
8CC	1
8E	3
8EE	2
8E-	3
=54	=54
8DD	1
8F	3
8AA	2
8BB	3
=55	=55
8C	1
8E	3
8EE	2
8EE-	3
=56	=56
8DD	1
8F	3
8AA	2
8BB	3
=57	=57
8C	1
8E	3
8BB	2
8BB-	3
=58	=58
8AA	1
8F	3
8FF	2
8EE	3
=59	=59
8DD	1
8DD#	3
8EE	2
8FF#	3
=60	=60
8GG	1
8GG#	3
8AA	2
8BB	3
=61	=61
8C	1
8E	3
8EE	2
8EE-	3
=62	=62
8DD	1
8F	3
8AA	2
8BB	3
=63	=63
8C	1
8E	3
8EE	2
8EE-	3
=64	=64
8DD	1
8F	3
8AA	2
8BB	3
=65	=65
8C	1
8E	3
8BB	2
8BB-	3
=66	=66
8AA	1
8F	3
8AA	2
8AA-	3
=67	=67
8GG	1
8GG#	3
8AA	2
8BB	3
=68	=68
8C	1
8AA	3
8BB	2
8BB-	3
=69	=69
8AA	1
8A	3
8CC#	2
8A	3
=70	=70
8AA	1
8AA#	3
8BB	2
8C#	3
=71	=71
8D	1
8A	3
8FF#	2
8A	3
=72	=72
8AA	1
8GG#	3
8AA	2
8AA#	3
=73	=73
8BB	1
8G	3
8GG	2
8G	3
=74	=74
8DD	1
8G	3
8GG	2
8G	3
=75	=75
8C	1
8G	3
8GG	2
8G	3
=76	=76
8C	1
8G	3
8C	2
8BB-	3
=77	=77
8AA	1
8A	3
8CC#	2
8A	3
=78	=78
8AA	1
8AA#	3
8BB	2
8C#	3
=79	=79
8D	1
8A	3
8FF#	2
8A	3
=80	=80
8AA	1
8GG#	3
8AA	2
8AA#	3
=81	=81
8BB	1
8G	3
8GG	2
8G	3
=82	=82
8D	1
8G	3
8GG	2
8G	3
=83	=83
8C	1
8AA	3
8GG	2
8EE	3
=84	=84
8CC	1
8AA	3
8BB	2
8BB-	3
=85	=85
*-	*-
